korla/apps/scalable/streamtuner.svg

<!DOCTYPE svg  PUBLIC '-//W3C//DTD SVG 1.1//EN'  'http://www.w3.org/Graphics/SVG/1.1/DTD/svg11.dtd'>
<svg style="clip-rule:evenodd;fill-rule:evenodd;stroke-linejoin:round;stroke-miterlimit:1.41421" version="1.1" viewBox="0 0 128 128" xmlns="http://www.w3.org/2000/svg">
 <circle cx="64" cy="64" r="59.966" style="fill:url(#_Linear1)"/>
 <g transform="matrix(.222806 0 0 .222806 -57.8572 -71.897)">
  <path d="m414.228 658.204l-1e-3 -0.147s6.061-1.287 12.314-2.615c7.896-1.677 13.543-8.649 13.543-16.721v-208.016c0-8.123 5.716-15.124 13.675-16.749 36.498-7.448 136.112-27.777 175.704-35.856 4.06-0.829 8.279 0.208 11.492 2.825 3.214 2.618 5.083 6.539 5.093 10.684l0.664 272.519c0.107 7.956-2.133 15.832-6.532 22.602-5.849 9.003-15.034 15.313-25.536 17.544-8.15 1.73-16.732 3.553-24.882 5.283-10.502 2.23-21.459 0.197-30.462-5.652s-15.314-15.034-17.544-25.536c-0.332-1.562-0.664-3.129-0.996-4.691-2.23-10.502-0.197-21.459 5.652-30.462s15.035-15.314 25.537-17.544c8.149-1.731 16.732-3.553 24.881-5.284 1.296-0.275 2.6-0.485 3.905-0.631l11.469-2.314c7.977-1.609 13.714-8.619 13.714-16.756v-121.943c0-3.483-1.563-6.783-4.257-8.991-2.695-2.207-6.238-3.09-9.654-2.404-31.211 6.266-106.51 21.382-137.55 27.614-7.984 1.602-13.729 8.615-13.729 16.759v190.317c0.205 8.117-2.036 16.171-6.522 23.075-5.849 9.003-15.035 15.314-25.537 17.544-8.149 1.73-16.732 3.553-24.881 5.284-10.502 2.23-21.46 0.197-30.463-5.652s-15.313-15.035-17.543-25.537c-0.332-1.562-0.665-3.129-0.996-4.691-2.231-10.501-0.197-21.459 5.652-30.462s15.034-15.314 25.536-17.544c8.15-1.73 16.732-3.553 24.882-5.283 1.12-0.238 2.245-0.428 3.372-0.569z" style="fill:url(#_Linear2)"/>
 </g>
 <g transform="matrix(.506869 0 0 .506869 51.57 49.1026)">
  <circle cx="64" cy="64" r="59.966" style="fill:url(#_Linear3)"/>
 </g>
 <g transform="matrix(.81203 0 0 1 16.5114 1.38795)">
  <path d="m103.634 73.246c0-1.192-0.968-2.159-2.159-2.159h-36.704c-1.192 0-2.159 0.967-2.159 2.159 0 1.191 0.967 2.159 2.159 2.159h36.704c1.191 0 2.159-0.968 2.159-2.159z" style="fill:white"/>
 </g>
 <g transform="matrix(4.97225e-17 .81203 -1 6.12323e-17 163.578 13.4581)">
  <path d="m103.634 73.246c0-1.192-0.968-2.159-2.159-2.159h-36.704c-1.192 0-2.159 0.967-2.159 2.159 0 1.191 0.967 2.159 2.159 2.159h36.704c1.191 0 2.159-0.968 2.159-2.159z" style="fill:white"/>
 </g>
 <g transform="matrix(.81203 0 0 1 16.5114 14.0337)">
  <path d="m103.634 73.246c0-1.192-0.968-2.159-2.159-2.159h-36.704c-1.192 0-2.159 0.967-2.159 2.159 0 1.191 0.967 2.159 2.159 2.159h36.704c1.191 0 2.159-0.968 2.159-2.159z" style="fill:white"/>
 </g>
 <g transform="matrix(4.97225e-17 .81203 -1 6.12323e-17 150.932 13.4581)">
  <path d="m103.634 73.246c0-1.192-0.968-2.159-2.159-2.159h-36.704c-1.192 0-2.159 0.967-2.159 2.159 0 1.191 0.967 2.159 2.159 2.159h36.704c1.191 0 2.159-0.968 2.159-2.159z" style="fill:white"/>
 </g>
 <defs>
  <linearGradient id="_Linear1" x2="1" gradientTransform="matrix(55.3026,106.602,-106.602,55.3026,31.915,12.3374)" gradientUnits="userSpaceOnUse">
   <stop style="stop-color:white" offset="0"/>
   <stop style="stop-color:rgb(199,199,199)" offset="1"/>
  </linearGradient>
  <linearGradient id="_Linear2" x2="1" gradientTransform="matrix(2.65537e-14,433.655,-433.655,2.65537e-14,512.898,352.118)" gradientUnits="userSpaceOnUse">
   <stop style="stop-color:rgb(19,112,152)" offset="0"/>
   <stop style="stop-color:rgb(11,78,148)" offset="1"/>
  </linearGradient>
  <linearGradient id="_Linear3" x2="1" gradientTransform="matrix(55.3026,106.602,-106.602,55.3026,31.915,12.3374)" gradientUnits="userSpaceOnUse">
   <stop style="stop-color:rgb(255,97,0)" offset="0"/>
   <stop style="stop-color:rgb(223,72,72)" offset="1"/>
  </linearGradient>
 </defs>
</svg>

<?xml version="1.0" encoding="UTF-8" standalone="no"?>
<!DOCTYPE svg PUBLIC "-//W3C//DTD SVG 1.1//EN" "http://www.w3.org/Graphics/SVG/1.1/DTD/svg11.dtd">
<svg width="100%" height="100%" viewBox="0 0 128 128" version="1.1" xmlns="http://www.w3.org/2000/svg" xmlns:xlink="http://www.w3.org/1999/xlink" xml:space="preserve" xmlns:serif="http://www.serif.com/" style="fill-rule:evenodd;clip-rule:evenodd;stroke-linejoin:round;stroke-miterlimit:1.41421;">
    <circle cx="64" cy="64" r="59.966" style="fill:url(#_Linear1);"/>
    <g id="note" transform="matrix(0.222806,0,0,0.222806,-57.8572,-71.897)">
        <path d="M414.228,658.204L414.227,658.057C414.227,658.057 420.288,656.77 426.541,655.442C434.437,653.765 440.084,646.793 440.084,638.721C440.084,596.97 440.084,472.604 440.084,430.705C440.084,422.582 445.8,415.581 453.759,413.956C490.257,406.508 589.871,386.179 629.463,378.1C633.523,377.271 637.742,378.308 640.955,380.925C644.169,383.543 646.038,387.464 646.048,391.609L646.712,664.128C646.819,672.084 644.579,679.96 640.18,686.73C634.331,695.733 625.146,702.043 614.644,704.274C606.494,706.004 597.912,707.827 589.762,709.557C579.26,711.787 568.303,709.754 559.3,703.905C550.297,698.056 543.986,688.871 541.756,678.369C541.424,676.807 541.092,675.24 540.76,673.678C538.53,663.176 540.563,652.219 546.412,643.216C552.261,634.213 561.447,627.902 571.949,625.672C580.098,623.941 588.681,622.119 596.83,620.388C598.126,620.113 599.43,619.903 600.735,619.757L612.204,617.443C620.181,615.834 625.918,608.824 625.918,600.687C625.918,572.14 625.918,507.457 625.918,478.744C625.918,475.261 624.355,471.961 621.661,469.753C618.966,467.546 615.423,466.663 612.007,467.349C580.796,473.615 505.497,488.731 474.457,494.963C466.473,496.565 460.728,503.578 460.728,511.722L460.728,702.039C460.933,710.156 458.692,718.21 454.206,725.114C448.357,734.117 439.171,740.428 428.669,742.658C420.52,744.388 411.937,746.211 403.788,747.942C393.286,750.172 382.328,748.139 373.325,742.29C364.322,736.441 358.012,727.255 355.782,716.753C355.45,715.191 355.117,713.624 354.786,712.062C352.555,701.561 354.589,690.603 360.438,681.6C366.287,672.597 375.472,666.286 385.974,664.056C394.124,662.326 402.706,660.503 410.856,658.773C411.976,658.535 413.101,658.345 414.228,658.204Z" style="fill:url(#_Linear2);"/>
    </g>
    <g transform="matrix(0.506869,0,0,0.506869,51.57,49.1026)">
        <circle cx="64" cy="64" r="59.966" style="fill:url(#_Linear3);"/>
    </g>
    <g>
        <g transform="matrix(0.81203,0,0,1,16.5114,1.38795)">
            <path d="M103.634,73.246C103.634,72.054 102.666,71.087 101.475,71.087L64.771,71.087C63.579,71.087 62.612,72.054 62.612,73.246C62.612,74.437 63.579,75.405 64.771,75.405L101.475,75.405C102.666,75.405 103.634,74.437 103.634,73.246Z" style="fill:white;"/>
        </g>
        <g transform="matrix(4.97225e-17,0.81203,-1,6.12323e-17,163.578,13.4581)">
            <path d="M103.634,73.246C103.634,72.054 102.666,71.087 101.475,71.087L64.771,71.087C63.579,71.087 62.612,72.054 62.612,73.246C62.612,74.437 63.579,75.405 64.771,75.405L101.475,75.405C102.666,75.405 103.634,74.437 103.634,73.246Z" style="fill:white;"/>
        </g>
        <g transform="matrix(0.81203,0,0,1,16.5114,14.0337)">
            <path d="M103.634,73.246C103.634,72.054 102.666,71.087 101.475,71.087L64.771,71.087C63.579,71.087 62.612,72.054 62.612,73.246C62.612,74.437 63.579,75.405 64.771,75.405L101.475,75.405C102.666,75.405 103.634,74.437 103.634,73.246Z" style="fill:white;"/>
        </g>
        <g transform="matrix(4.97225e-17,0.81203,-1,6.12323e-17,150.932,13.4581)">
            <path d="M103.634,73.246C103.634,72.054 102.666,71.087 101.475,71.087L64.771,71.087C63.579,71.087 62.612,72.054 62.612,73.246C62.612,74.437 63.579,75.405 64.771,75.405L101.475,75.405C102.666,75.405 103.634,74.437 103.634,73.246Z" style="fill:white;"/>
        </g>
    </g>
    <defs>
        <linearGradient id="_Linear1" x1="0" y1="0" x2="1" y2="0" gradientUnits="userSpaceOnUse" gradientTransform="matrix(55.3026,106.602,-106.602,55.3026,31.915,12.3374)"><stop offset="0" style="stop-color:white;stop-opacity:1"/><stop offset="1" style="stop-color:rgb(199,199,199);stop-opacity:1"/></linearGradient>
        <linearGradient id="_Linear2" x1="0" y1="0" x2="1" y2="0" gradientUnits="userSpaceOnUse" gradientTransform="matrix(2.65537e-14,433.655,-433.655,2.65537e-14,512.898,352.118)"><stop offset="0" style="stop-color:rgb(19,112,152);stop-opacity:1"/><stop offset="1" style="stop-color:rgb(11,78,148);stop-opacity:1"/></linearGradient>
        <linearGradient id="_Linear3" x1="0" y1="0" x2="1" y2="0" gradientUnits="userSpaceOnUse" gradientTransform="matrix(55.3026,106.602,-106.602,55.3026,31.915,12.3374)"><stop offset="0" style="stop-color:rgb(255,97,0);stop-opacity:1"/><stop offset="1" style="stop-color:rgb(223,72,72);stop-opacity:1"/></linearGradient>
    </defs>
</svg>
